svgs/regular/rectangle-barcode.svg

<svg xmlns="http://www.w3.org/2000/svg" viewBox="0 0 576 512"><!--! Font Awesome Pro 6.6.0 by @fontawesome - https://fontawesome.com License - https://fontawesome.com/license (Commercial License) Copyright 2024 Fonticons, Inc. --><path d="M64 80c-8.8 0-16 7.2-16 16l0 320c0 8.8 7.2 16 16 16l448 0c8.8 0 16-7.2 16-16l0-320c0-8.8-7.2-16-16-16L64 80zM0 96C0 60.7 28.7 32 64 32l448 0c35.3 0 64 28.7 64 64l0 320c0 35.3-28.7 64-64 64L64 480c-35.3 0-64-28.7-64-64L0 96zm120 32c13.3 0 24 10.7 24 24l0 208c0 13.3-10.7 24-24 24s-24-10.7-24-24l0-208c0-13.3 10.7-24 24-24zm72 0c8.8 0 16 7.2 16 16l0 224c0 8.8-7.2 16-16 16s-16-7.2-16-16l0-224c0-8.8 7.2-16 16-16zm48 24c0-13.3 10.7-24 24-24s24 10.7 24 24l0 208c0 13.3-10.7 24-24 24s-24-10.7-24-24l0-208zm136-24c13.3 0 24 10.7 24 24l0 208c0 13.3-10.7 24-24 24s-24-10.7-24-24l0-208c0-13.3 10.7-24 24-24zm72 16c0-8.8 7.2-16 16-16s16 7.2 16 16l0 224c0 8.8-7.2 16-16 16s-16-7.2-16-16l0-224z"/></svg>

<svg xmlns="http://www.w3.org/2000/svg" viewBox="0 0 576 512"><!--! Font Awesome Pro 6.5.2 by @fontawesome - https://fontawesome.com License - https://fontawesome.com/license (Commercial License) Copyright 2024 Fonticons, Inc. --><path d="M64 80c-8.8 0-16 7.2-16 16V416c0 8.8 7.2 16 16 16H512c8.8 0 16-7.2 16-16V96c0-8.8-7.2-16-16-16H64zM0 96C0 60.7 28.7 32 64 32H512c35.3 0 64 28.7 64 64V416c0 35.3-28.7 64-64 64H64c-35.3 0-64-28.7-64-64V96zm120 32c13.3 0 24 10.7 24 24V360c0 13.3-10.7 24-24 24s-24-10.7-24-24V152c0-13.3 10.7-24 24-24zm72 0c8.8 0 16 7.2 16 16V368c0 8.8-7.2 16-16 16s-16-7.2-16-16V144c0-8.8 7.2-16 16-16zm48 24c0-13.3 10.7-24 24-24s24 10.7 24 24V360c0 13.3-10.7 24-24 24s-24-10.7-24-24V152zm136-24c13.3 0 24 10.7 24 24V360c0 13.3-10.7 24-24 24s-24-10.7-24-24V152c0-13.3 10.7-24 24-24zm72 16c0-8.8 7.2-16 16-16s16 7.2 16 16V368c0 8.8-7.2 16-16 16s-16-7.2-16-16V144z"/></svg>
